ix/ticket-expired_twotone.svg

<svg viewBox="0 0 24 24" fill="none" xmlns="http://www.w3.org/2000/svg" height="1em" width="1em">
  <path d="M10.9023 19.8701H17.3723C21.0723 19.8701 21.9923 18.9501 21.9923 15.2501C20.7123 15.2501 19.6823 14.2101 19.6823 12.9401C19.6823 11.6601 20.7123 10.6201 21.9923 10.6201V9.70008C21.9923 6.00008 21.0723 5.08008 17.3723 5.08008H10.9923V11.8701" stroke="#292D32" stroke-width="1.5" stroke-linecap="round" stroke-linejoin="round"/>
  <path opacity="0.4" d="M10.9936 16.87V19.87H8.22356C6.74356 19.87 5.87357 18.86 4.91357 16.54L4.73356 16.09C5.94356 15.61 6.53357 14.21 6.02357 13C5.53357 11.79 4.14357 11.21 2.92357 11.71L2.75357 11.28C1.31356 7.76 1.81357 6.53 5.33357 5.08L7.97357 4L10.9936 11.32V13.87" stroke="#292D32" stroke-width="1.5" stroke-linecap="round" stroke-linejoin="round"/>
  <path d="M8.16219 19.8701H7.99219" stroke="#292D32" stroke-width="1.5" stroke-linecap="round" stroke-linejoin="round"/>
</svg>

<svg viewBox="0 0 24 24" fill="none" xmlns="http://www.w3.org/2000/svg" height="1em" width="1em">
  <path d="M10.902 19.87h6.47c3.7 0 4.62-.92 4.62-4.62-1.28 0-2.31-1.04-2.31-2.31 0-1.28 1.03-2.32 2.31-2.32V9.7c0-3.7-.92-4.62-4.62-4.62h-6.38v6.79" stroke="#292D32" stroke-width="1.5" stroke-linecap="round" stroke-linejoin="round"/>
  <path opacity=".4" d="M10.994 16.87v3h-2.77c-1.48 0-2.35-1.01-3.31-3.33l-.18-.45A2.35 2.35 0 0 0 6.024 13a2.37 2.37 0 0 0-3.1-1.29l-.17-.43c-1.44-3.52-.94-4.75 2.58-6.2L7.974 4l3.02 7.32v2.55" stroke="#292D32" stroke-width="1.5" stroke-linecap="round" stroke-linejoin="round"/>
  <path d="M8.162 19.87h-.17" stroke="#292D32" stroke-width="1.5" stroke-linecap="round" stroke-linejoin="round"/>
</svg>
